P1
# KDOS panic-screen mark — generated by genlogo-mono.py, do not edit
62 80
00000000000000000000000000000000000000000000000000000000000000
00000000000000000000000000000000000000000000000000000000000000
00000000000000000000000000000000000000000000000000000000000000
00000000000000000000000000011111100000000000000000000000000000
00000000000000000000000011111111111000000000000000000000000000
00000000000000000000000111111111111100000000000000000000000000
00000000000000000000000111111111111100000000000000000000000000
00000000001000000000001111111111111110000000000000000000000000
00000000011000000000001111111111111110000000000011100000000000
00000000111000000000000011111100111110000000000011110000000000
00000001110000000000001011110000111110000000000001110000000000
00000011110000000000011110011001111111000000000001111000000000
00000111110000000000010000001111111111000000000000111100000000
00000111110000000000010000000111111111000000000000111110000000
00001111110000000000000000000000111111000000000000111110000000
00001111111001111000100000000010111111100000000000011111000000
00001111111011111101000000000100111111100000000000011111000000
00001111111111111111000000000001111111110011100000011111100000
00001111111111111110000011111111111111111111111000111111100000
00000111111111111110011111111111111111111111111100111111100000
00000111111111111111111111111111111111111111111101111111110000
00000011111111111111111111111111111111111111111111111111110000
00000001111111111111111111111111111111111111111111111111110000
00000001111111111000011111111111000111111111111111111111110000
00000000111111110000000111110000000000111111111111111111110000
00000000111111100000000010000000000000011111111111111111110000
00000000011111000000000000000000000000011111111111111111110000
00000000011111000000000000000000000000111111111111111111110000
00000000011111000000000000000000000000111111111111111111100000
00000000001110000000000000000000000000111111111111111111000000
00000000001110000000000000000000000001111111111111111110000000
00000000001110000000000000000000000001111111111111111100000000
00000000001110000000000000000000000001111111111111110000000000
00000000001110000000000000000000000001111111111111000000000000
00000000001110000000000000000000000001111111111100000000000000
00000000000110000000000000000000000001111111111000000000000000
00000000000110000000000000000000000001111111110000000000000000
00000000000110000000000000000000000001111111100000000000000000
00000000000110000000000000000000000001111111100000000000000000
00000000000110000000000000000000000001111111000000000000000000
00000000000110000000010000000000000001111111000000000000000000
00000000000010000000000000000000000001111110000000000000000000
00000000000010000000000000000000000001111100000000000000000000
00000000000010000000000000000000000001111000000000000000000000
00000000000010000000000000000000000011111000000000000000000000
00000000000001000000000000000000000011110000000000000000000000
00000000000001100000000000000000000111110000000000000000000000
00000000000001100000000000000000000111110000000000000000000000
00000000000000100000000000000000001111100000000000000000000000
00000000000000110000000000000000001111100000000000000000000000
00000000000000110000000000000000001111100000000000000000000000
00000000000000011000000000000000001111000000000000000000000000
00000000000000011000000000000000001111000000000000000000000000
00000000000000011000000000000000001111000000000000000000000000
00000000000000001100000000000000001111000000000000000000000000
00000000000000001110000000000000001111000000000000000000000000
00000000000000000110000000000000001111000000000000000000000000
00000000000000000111000000000000011111000000000000000000000000
00000000000000000111110000000000111111000000000000000000000000
00000000000000000011111100000011111111000000000000000000000000
00000000000000000011111111111111111111000000000000000000000000
00000000000000000011111111111111111111000000000000000000000000
00000000000000000111111000001111111111000000000000000000000000
00000001111110000111100000000000111111000000000000000000000000
00000001111111111111000000000000011111000000000000000000000000
00000011111111111111000000000000001111000000000000000000000000
00000111111111111111000000000000000111100000000000000000000000
00000111111111111110000000000000000111110000000000000000000000
00000111111111110000000000000000000111110000000000000000000000
00011111111000000000000000000000000011111000000000000000000000
00011000000000000000000000000000000111111110000000000000000000
00000000000000000000000000000000000111111111000000000000000000
00000000000000000000000000000000000111111111110000000000000000
00000000000000000000000000000000000111111111111100000000000000
00000000000000000000000000000000001111111111111110000000000000
00000000000000000000000000000000001111111111111111000000000000
00000000000000000000000000000000001110001111000000000000000000
00000000000000000000000000000000000100000011000000000000000000
00000000000000000000000000000000000000000000000000000000000000
00000000000000000000000000000000000000000000000000000000000000
